X: 351
Q: "Slowish"
M: 6/8
L: 1/8
K: G
V: 1
V: 2 clef=bass middle=d
z |\
g2G a2g | c2^c d2z | g2d G2 :: z | [g3G3] [g3G3] | d3 g2f |
e2c G2z | c2^c d2z | [g3G3] [g3G3] | [g3G3] [g3G3] | c3 d3 | G2d G2 :|


